X:1
T:Title
L:1/8
M:4/4
K:C
V:1 treble nm="Grand Piano"
V:1
 z4 z2[Q:1/4=100] C2 | C2 CD E2 EF | G2 GF F E2 E | A2 AG G2 GF | E2 FE D2 B,2 | C2 B,C D2 CD | %6
 E2 DE F3 D | E2 D2 E2 D2 | EFGF E2 EF | GF/G/ F2 E2 EE | AG/A/ G2 F2 EE | ^G2 E2 G2 EE | %12
 B2 cB A2 cB | cBcB A2 GA | BABA G2 FG | A2 A2 ^G2 GG | B2 cB A2 cB | cBcB A2 GA | BABA G2 FG | %19
 A2 A2 ^G2 GG | A6 z2 |] %21

